google-analytics-dashboard-for-wp/lite/assets/vue/img/em-pl-logo.svg

<svg width="189" height="47" viewBox="0 0 189 47" fill="none" xmlns="http://www.w3.org/2000/svg">
	<g clip-path="url(#clip0)">
		<path
			d="M151.08 18.5667C150.301 17.8078 149.912 16.7642 149.912 15.7206C143.682 15.436 137.453 15.6257 130.834 16.3847C130.348 16.4796 129.958 16.7642 129.861 17.0488C129.764 17.4283 130.153 17.618 130.25 17.618C133.073 18.8514 134.533 19.5155 137.161 21.0334C137.356 21.1283 137.648 21.2232 137.94 21.2232C139.302 21.1283 140.568 21.0334 141.833 21.0334C145.921 20.9385 150.009 21.0334 153.902 21.5078L151.08 18.5667Z"
			fill="#4FD6F6"/>
		<path
			d="M157.601 25.2077L156.433 24.0693C152.053 23.4052 147.576 23.1205 143.098 23.2154C142.709 23.2154 142.32 23.4052 142.222 23.6898C142.125 23.9744 142.32 24.259 142.514 24.3539C144.85 25.9667 146.018 26.8205 148.257 28.6231C148.452 28.718 148.549 28.8129 148.744 28.8129C151.372 29.0026 153.513 29.0975 155.46 29.477L157.601 25.2077Z"
			fill="#9AE8FA"/>
		<path
			d="M154 11.6411C154.194 11.6411 154.486 11.6411 154.681 11.6411L164.22 12.7796L165.68 9.93342C148.938 6.70778 133.268 7.27701 116.624 11.6411C116.04 11.8309 115.553 12.2103 115.553 12.5898C115.553 12.8744 115.942 12.9693 116.04 13.0642C119.252 13.8232 120.906 14.2975 123.924 15.3411C124.216 15.436 124.508 15.436 124.897 15.3411C130.64 14.2975 135.993 13.7283 141.444 13.5385C144.461 13.4437 147.478 13.5385 150.496 13.7283C151.274 12.495 152.54 11.736 154 11.6411Z"
			fill="#03C5F2"/>
		<path
			d="M188.066 19.2308C187.872 18.4718 187.288 17.9026 186.509 17.8077L175.413 16.4795L173.661 6.80262C173.564 6.04364 172.882 5.47441 172.104 5.37954C171.325 5.28467 170.546 5.66415 170.157 6.32826L165.485 15.3411L154.389 14.0129C153.61 13.918 152.832 14.2975 152.54 14.9616C152.15 15.6257 152.345 16.4795 152.832 16.9539L160.521 24.7334L154.876 35.9283C154.876 35.9283 154.876 36.0231 154.778 36.0231C154.778 36.0231 154.778 36.118 154.681 36.118V36.2129V36.3077V36.4026V36.4975V36.5924V36.6872V36.7821C154.681 36.877 154.681 36.877 154.681 36.9718C154.681 36.9718 154.681 37.0667 154.778 37.0667C154.778 37.1616 154.778 37.1616 154.876 37.2565C154.876 37.2565 154.876 37.3513 154.973 37.3513L155.07 37.4462L155.168 37.5411L155.265 37.6359C155.362 37.7308 155.46 37.7308 155.46 37.8257H155.557C155.654 37.8257 155.654 37.9206 155.752 37.9206H155.849C155.946 37.9206 155.946 37.9206 156.044 38.0154H156.141C156.238 38.0154 156.238 38.0154 156.336 38.0154C156.433 38.0154 156.433 38.0154 156.53 38.0154H156.628C156.725 38.0154 156.725 38.0154 156.822 38.0154H156.92C157.017 38.0154 157.114 38.0154 157.114 37.9206C157.114 37.9206 157.114 37.9206 157.212 37.9206C157.309 37.9206 157.406 37.8257 157.504 37.8257L168.016 31.7539L176.581 40.6718C176.873 40.9565 177.262 41.1462 177.652 41.2411C178.041 41.2411 178.333 41.2411 178.722 41.0513C179.404 40.6718 179.89 39.9129 179.696 39.1539L177.36 26.4411L187.288 20.7488C187.872 20.7488 188.261 19.9898 188.066 19.2308Z"
			fill="url(#paint0_linear)"/>
	</g>
	<path
		d="M92.6389 15.9609C93.8629 17.0026 94.5139 18.3307 94.592 19.9453C94.6702 21.5599 94.1493 22.9271 93.0295 24.0469L85.4905 31.8594C85.2301 32.1198 84.9306 32.25 84.592 32.25C84.2535 32.25 83.954 32.1198 83.6936 31.8594L76.1545 24.0469C75.0347 22.9271 74.5139 21.5599 74.592 19.9453C74.6702 18.3307 75.3212 17.0026 76.5452 15.9609C77.6129 15.0495 78.8368 14.6589 80.217 14.7891C81.6233 14.8932 82.8212 15.4531 83.8108 16.4688L84.592 17.25L85.3733 16.4688C86.3629 15.4531 87.5478 14.8932 88.928 14.7891C90.3342 14.6589 91.5712 15.0495 92.6389 15.9609Z"
		fill="#EB5757"/>
	<path
		d="M6.50578 25.659C5.30822 25.659 4.33716 24.688 4.33716 23.4904C4.33716 22.2928 5.30822 21.3218 6.50578 21.3218H23.3174C23.1608 22.0157 23.074 22.7434 23.074 23.4904C23.074 24.2374 23.1608 24.9651 23.3174 25.659H6.50578Z"
		fill="#A735DF"/>
	<path
		d="M2.16862 18.2495C0.97106 18.2495 0 17.2784 0 16.0809C0 14.8833 0.97106 13.9122 2.16862 13.9122H32.6329C32.563 13.9122 32.4763 13.9122 32.4064 13.9122H32.3534C32.2835 13.9122 32.2136 13.9122 32.1269 13.9122H32.11C32.0401 13.9122 31.9703 13.9122 31.9028 13.9291H31.8691C31.7992 13.9291 31.7293 13.946 31.6426 13.946H31.6088C31.539 13.946 31.4884 13.9628 31.4185 13.9628H31.3847C31.3149 13.9797 31.245 13.9797 31.1775 13.9966H31.1245C30.9848 14.0134 30.8474 14.0496 30.7077 14.0664L30.6546 14.0833C30.5848 14.1002 30.5342 14.117 30.4643 14.117L30.4113 14.1339L30.2546 14.1676L30.2016 14.1845C30.1318 14.2014 30.0812 14.2182 30.0113 14.2375L29.9775 14.2544C29.9245 14.2713 29.8739 14.2881 29.8209 14.3074L29.751 14.3243L29.5944 14.3773L29.5245 14.3941C29.4547 14.411 29.4041 14.4279 29.3342 14.464L29.3005 14.4809L29.1607 14.5339L29.0908 14.5676C29.0378 14.5845 28.9872 14.6206 28.9342 14.6375L28.8643 14.6712L28.7438 14.7243L28.674 14.758C28.621 14.7749 28.5704 14.811 28.5173 14.8279L28.4475 14.8616L28.3439 14.9146L28.2234 14.9845L28.1198 15.0375L28.033 15.0905L27.9463 15.1435L27.8258 15.2134L27.7559 15.2664L27.6692 15.3194L27.5487 15.3893L27.462 15.4423L27.4089 15.476C27.3053 15.5459 27.1824 15.6327 27.0788 15.7025L27.062 15.7194C26.9921 15.7724 26.9222 15.823 26.8523 15.876L26.8355 15.8929C26.7318 15.9796 26.609 16.0664 26.5053 16.1531L26.4885 16.17C25.7945 16.7604 25.1704 17.4543 24.6668 18.235H2.22163L2.16862 18.2495Z"
		fill="#6433F9"/>
	<path
		d="M10.8263 28.7288H24.6188C26.3368 31.3311 29.2861 33.066 32.633 33.066H10.8263C9.62877 33.066 8.65771 32.0949 8.65771 30.8974C8.65771 29.6998 9.62877 28.7288 10.8263 28.7288Z"
		fill="#E63060"/>
	<path
		d="M42.7481 23.4904C42.7481 17.905 38.2205 13.375 32.6327 13.375C27.0449 13.375 22.5173 17.9026 22.5173 23.4904C22.5173 29.0782 27.0449 33.6058 32.6327 33.6058C38.2205 33.6058 42.7481 29.0758 42.7481 23.4904ZM24.045 23.4904C24.045 18.7363 27.8955 14.9027 32.6327 14.9027C37.3868 14.9027 41.2205 18.7532 41.2205 23.4904C41.2205 28.2445 37.37 32.0781 32.6327 32.0781C27.8786 32.0781 24.045 28.2252 24.045 23.4904Z"
		fill="#210F59"/>
	<path
		d="M51.4565 10.2015L34.6979 0.572877C33.3798 -0.190959 31.869 -0.190959 30.5341 0.572877L13.7755 10.2015C13.6189 10.2883 13.4623 10.3919 13.3249 10.4955H21.3223L32.5461 4.05953C32.563 4.05953 32.616 4.0258 32.6329 4.0258C32.6497 4.0258 32.7027 4.04267 32.7196 4.05953L49.4782 13.6882C49.4951 13.6882 49.5312 13.7219 49.5481 13.7412C49.565 13.7749 49.565 13.828 49.565 13.8448V33.1552C49.565 33.1889 49.565 33.2419 49.5481 33.2588C49.5481 33.2757 49.4951 33.2925 49.4782 33.3118L32.7196 42.9405C32.7027 42.9405 32.6497 42.9742 32.6329 42.9742C32.616 42.9742 32.563 42.9573 32.5461 42.9405L21.3223 36.5045H13.3225C13.4623 36.6081 30.5317 46.4271 30.5317 46.4271C31.8497 47.191 33.3606 47.191 34.6955 46.4271L51.4541 36.7985C52.789 36.0178 53.5528 34.6997 53.5528 33.1552V13.8448C53.5552 12.3003 52.7938 10.963 51.4565 10.2015Z"
		fill="#210F59"/>
	<path
		d="M32.6329 27.4975C34.8459 27.4975 36.64 25.7035 36.64 23.4904C36.64 21.2773 34.8459 19.4833 32.6329 19.4833C30.4198 19.4833 28.6257 21.2773 28.6257 23.4904C28.6257 25.7035 30.4198 27.4975 32.6329 27.4975Z"
		fill="#210F59"/>
	<defs>
		<linearGradient id="paint0_linear" x1="152.642" y1="24.3618" x2="188.272" y2="22.904"
						gradientUnits="userSpaceOnUse">
			<stop stop-color="#FF8C00"/>
			<stop offset="0.7" stop-color="#FFD200"/>
		</linearGradient>
		<clipPath id="clip0">
			<rect x="115.553" y="5" width="73" height="37" fill="white"/>
		</clipPath>
	</defs>
</svg>

<svg width="189" height="47" fill="none" xmlns="http://www.w3.org/2000/svg"><g clip-path="url(#clip0)"><path d="M151.08 18.567c-.779-.76-1.168-1.803-1.168-2.846a118.157 118.157 0 00-19.078.664c-.486.095-.876.38-.973.664-.097.38.292.569.389.569 2.823 1.233 4.283 1.898 6.911 3.415.195.095.487.19.779.19 1.362-.095 2.628-.19 3.893-.19 4.088-.095 8.176 0 12.069.475l-2.822-2.941z" fill="#4FD6F6"/><path d="M157.601 25.208l-1.168-1.139a78.074 78.074 0 00-13.335-.854c-.389 0-.778.19-.876.475-.097.284.098.569.292.664 2.336 1.613 3.504 2.466 5.743 4.27.195.094.292.189.487.189 2.628.19 4.769.285 6.716.664l2.141-4.27z" fill="#9AE8FA"/><path d="M154 11.641h.681l9.539 1.139 1.46-2.847c-16.742-3.225-32.412-2.656-49.056 1.708-.584.19-1.071.57-1.071.949 0 .284.389.38.487.474 3.212.76 4.866 1.233 7.884 2.277.292.095.584.095.973 0 5.743-1.043 11.096-1.613 16.547-1.802 3.017-.095 6.034 0 9.052.19A4.427 4.427 0 01154 11.64z" fill="#03C5F2"/><path d="M188.066 19.23c-.194-.758-.778-1.327-1.557-1.422l-11.096-1.328-1.752-9.677c-.097-.76-.779-1.329-1.557-1.423a1.993 1.993 0 00-1.947.948l-4.672 9.013-11.096-1.328c-.779-.095-1.557.284-1.849.949-.39.664-.195 1.518.292 1.992l7.689 7.78-5.645 11.194s0 .095-.098.095c0 0 0 .095-.097.095v.854s0 .095.097.095c0 .095 0 .095.098.19 0 0 0 .094.097.094l.097.095.098.095.097.095c.097.095.195.095.195.19h.097c.097 0 .097.095.195.095h.097c.097 0 .097 0 .195.094h.876c.097 0 .194 0 .194-.094h.098c.097 0 .194-.095.292-.095l10.512-6.072 8.565 8.918c.292.285.681.474 1.071.57.389 0 .681 0 1.07-.19.682-.38 1.168-1.14.974-1.898L177.36 26.44l9.928-5.692c.584 0 .973-.76.778-1.518z" fill="url(#paint0_linear)"/></g><path d="M92.639 15.96c1.224 1.043 1.875 2.37 1.953 3.985.078 1.615-.443 2.982-1.563 4.102l-7.538 7.812c-.26.26-.56.391-.899.391-.338 0-.638-.13-.898-.39l-7.54-7.813c-1.12-1.12-1.64-2.487-1.562-4.102.078-1.614.73-2.942 1.953-3.984 1.068-.912 2.292-1.302 3.672-1.172 1.406.104 2.604.664 3.594 1.68l.781.781.781-.781c.99-1.016 2.175-1.576 3.555-1.68 1.406-.13 2.643.26 3.71 1.172z" fill="#EB5757"/><path d="M6.506 25.659a2.169 2.169 0 010-4.337h16.811a9.855 9.855 0 00-.243 2.168c0 .747.087 1.475.243 2.169H6.506z" fill="#A735DF"/><path d="M2.169 18.25a2.169 2.169 0 010-4.338h30.464-.523c-.07 0-.14 0-.207.017h-.034c-.07 0-.14.017-.226.017h-.034c-.07 0-.12.017-.19.017h-.034c-.07.017-.14.017-.208.034h-.052c-.14.016-.278.053-.417.07l-.053.016c-.07.017-.12.034-.19.034l-.054.017-.156.034-.053.017c-.07.016-.12.033-.19.053l-.035.016a4.008 4.008 0 00-.156.053l-.07.017-.157.053-.07.017a.765.765 0 00-.19.07l-.034.017-.14.053-.07.034c-.052.017-.103.053-.156.07l-.07.033-.12.053-.07.034c-.053.017-.104.053-.157.07l-.07.034-.103.053-.12.07-.104.053-.087.053-.087.053-.12.07-.07.052-.087.053-.12.07-.087.053-.053.034c-.104.07-.227.157-.33.226l-.017.017-.21.157-.017.017c-.103.087-.226.173-.33.26l-.017.017a9.458 9.458 0 00-1.821 2.065H2.222l-.053.015z" fill="#6433F9"/><path d="M10.826 28.729H24.62c1.718 2.602 4.667 4.337 8.014 4.337H10.826a2.169 2.169 0 010-4.337z" fill="#E63060"/><path d="M42.748 23.49c0-5.585-4.527-10.115-10.115-10.115A10.114 10.114 0 0022.517 23.49a10.114 10.114 0 0010.116 10.116c5.587 0 10.115-4.53 10.115-10.116zm-18.703 0a8.584 8.584 0 018.588-8.587 8.584 8.584 0 018.587 8.587 8.584 8.584 0 01-8.587 8.588 8.586 8.586 0 01-8.588-8.588z" fill="#210F59"/><path d="M51.456 10.201L34.698.573c-1.318-.764-2.829-.764-4.164 0L13.775 10.2c-.156.087-.313.19-.45.294h7.997L32.546 4.06c.017 0 .07-.034.087-.034.017 0 .07.017.087.034l16.758 9.628c.017 0 .053.034.07.053.017.034.017.087.017.104v19.31c0 .034 0 .087-.017.104 0 .017-.053.033-.07.053L32.72 42.94c-.017 0-.07.033-.087.033a.187.187 0 01-.087-.033l-11.224-6.437h-8c.14.104 17.21 9.923 17.21 9.923 1.318.764 2.829.764 4.164 0l16.758-9.629c1.335-.78 2.099-2.098 2.099-3.643v-19.31c.002-1.545-.76-2.882-2.096-3.644z" fill="#210F59"/><path d="M32.633 27.497a4.007 4.007 0 100-8.014 4.007 4.007 0 000 8.014z" fill="#210F59"/><defs><linearGradient id="paint0_linear" x1="152.642" y1="24.362" x2="188.272" y2="22.904" gradientUnits="userSpaceOnUse"><stop stop-color="#FF8C00"/><stop offset=".7" stop-color="#FFD200"/></linearGradient><clipPath id="clip0"><path fill="#fff" d="M115.553 5h73v37h-73z"/></clipPath></defs></svg>
